brandFactory_export/2.Regular/Abrir archivo_2Regular.svg

<?xml version="1.0" encoding="UTF-8"?>
<svg width="24px" height="24px" viewBox="0 0 24 24" version="1.1" xmlns="http://www.w3.org/2000/svg" xmlns:xlink="http://www.w3.org/1999/xlink">
    <title>2.Regular/Abrir archivo_2Regular</title>
    <g id="Symbols" stroke="none" stroke-width="1" fill="none" fill-rule="evenodd">
        <g id="2.Regular/Abrir-archivo_2Regular" fill="#5CB615" fill-rule="nonzero">
            <path d="M20.4369748,18.9831933 C20.4268908,19.0268908 20.4235294,19.0739496 20.4235294,19.1176471 C20.4235294,19.1882353 20.3663866,19.2420168 20.292437,19.2420168 L2.56806723,19.2420168 C2.51092437,19.2420168 2.4605042,19.205042 2.44369748,19.1546218 L4.19831933,9.66218487 C4.20504202,9.61512605 4.21176471,9.57142857 4.21176471,9.52436975 C4.21176471,9.45378151 4.26890756,9.4 4.34285714,9.4 L22.0436975,9.4 C22.1042017,9.4 22.1512605,9.43697479 22.1680672,9.48739496 L20.4369748,18.9831933 Z M1.73109244,4.52941176 L9.08571429,4.52941176 C9.21344538,4.52941176 9.30084034,4.60672269 9.30084034,4.67731092 L9.30084034,5.91092437 C9.30084034,6.32436975 9.63361345,6.6605042 10.0436975,6.6605042 L19.3109244,6.6605042 C19.4386555,6.6605042 19.5260504,6.73781513 19.5294118,6.86890756 L19.6067227,7.90084034 L19.6067227,7.90420168 L4.34285714,7.90420168 C3.4789916,7.90420168 2.7697479,8.58991597 2.72941176,9.45042017 L2.0605042,13.0739496 L1.51923404,4.68067227 C1.51596639,4.60672269 1.60336134,4.52941176 1.73109244,4.52941176 Z M22.0403361,7.90084034 L21.0722689,7.90084034 C21.0756303,7.8605042 21.0890756,7.82352941 21.0857143,7.78319328 L21.0084034,6.80840336 C21.0084034,5.90084034 20.2453782,5.15798319 19.307563,5.15798319 L10.7831933,5.15798319 L10.7831933,4.67394958 C10.7831933,3.76638655 10.0201681,3.02352941 9.08235294,3.02352941 L1.72773109,3.02352941 C0.789915966,3.02352941 0.0302521008,3.76302521 0.0302521008,4.7210084 L0.954621849,19.0605042 C0.954621849,19.0773109 0.94789916,19.0941176 0.94789916,19.1142857 C0.94789916,20.0117647 1.67394958,20.7411765 2.56470588,20.7411765 L20.2890756,20.7411765 C21.1529412,20.7411765 21.8621849,20.0521008 21.902521,19.194958 L23.6403361,9.65882353 C23.6504202,9.61512605 23.6537931,9.56806723 23.6537931,9.52436975 C23.6571429,8.6302521 22.9310924,7.90084034 22.0403361,7.90084034 L22.0403361,7.90084034 Z" id="Abrir-archivo_2Regular"></path>
        </g>
    </g>
</svg>

<svg width="24" height="24" viewBox="0 0 24 24" xmlns="http://www.w3.org/2000/svg"><path d="M20.437 18.983a.608.608 0 00-.013.135c0 .07-.058.124-.132.124H2.568a.132.132 0 01-.124-.087l1.754-9.493c.007-.047.014-.09.014-.138 0-.07.057-.124.13-.124h17.702c.06 0 .107.037.124.087l-1.731 9.496zM1.731 4.53h7.355c.127 0 .215.078.215.148v1.234c0 .413.333.75.743.75h9.267c.128 0 .215.077.218.208l.078 1.032v.003H4.343A1.62 1.62 0 002.729 9.45l-.668 3.624-.542-8.393c-.003-.074.084-.152.212-.152zm20.31 3.372h-.969c.004-.04.017-.077.014-.118l-.078-.975c0-.907-.763-1.65-1.7-1.65h-8.525v-.484c0-.908-.763-1.65-1.7-1.65H1.727C.79 3.024.03 3.763.03 4.72l.925 14.34c0 .016-.007.033-.007.053 0 .898.726 1.627 1.617 1.627h17.724c.864 0 1.573-.689 1.614-1.546l1.737-9.536a.608.608 0 00.014-.135 1.618 1.618 0 00-1.614-1.623z" fill="#5CB615" fill-rule="nonzero"/></svg>
